X:391
T:Mrs Oliphant Murray
B:The Gow Collection (1986)
N:Originally printed in the early 19th century
Z:Nigel Gatherer
M:4/4
L:1/8
K:D
f|d2 dA FGAd|BdAd Ecec|d2 dA FGAg|
fd f/e/d/c/ dD D||f|dd f/e/d adfd|Ad f/e/d eBBe|
1dd f/e/d adfd|AF f>e fd d:|2dfeg fbag|fd f/e/d/c/ dD D|]
